X: 16358
T: Guns Of The Magnificent Seven, The
R: reel
M: 4/4
K: Adorian
|:EAA2 ABcA|EAFA GAEA|EAA2 ABcd|egdB BAA2:|
|:ABcd eAA2|gedB BAGB|ABcd eaaf|gedB BAA2:|
|:egdB A2|egdB GABd|eBdB Aa2f|gedB BAA2:|

